X:1
T:The Well-Tempered Clavier Book I - XVI
T:BWV 861    (A = 415 Hz)
T:J. S. Bach
%%score { ( 1 2 5 ) | ( 3 4 ) }
L:1/8
Q:1/4=60
M:4/4
K:Bb
V:1 treble nm="Harp"
V:2 treble 
V:5 treble 
V:3 bass 
V:4 bass 
V:1
"^Lent""^Praeludium" a/4g/4a/4g/4a/4g/4a/4g/4 a/4g/4a/4g/4a/4g/4a/4g/4 a/4g/4a/4g/4a/4g/4a/4g/4 a/4g/4a/4g/4a/4g/4a/4g/4- | %1
 g/d/e/4d/4c/ d/g/c/4B/4A/ B/g/c/4B/4A/ B/g/A/4G/4^F/ | %2
 A/4G/4A/4G/4A/4G/4A/4G/4 A/4G/4A/4G/4A/4G/4A/4G/4 A/4G/4A/4G/4A/4G/4A/4G/4 A/4G/4A/4G/4A/4G/4A/4G/4- | %3
 G/=e/B/4A/4G/ A/e/G/4^F/4=E/ F>G F/A/d/4c/4B/ | %4
 c/e/d/4c/4B/ c/a/c/4B/4A/ B/d/c/4B/4A/ B/g/B/4A/4G/ | %5
 A/F/B/4c/4d/ c/F/d/4e/4f/ e/c/g/4a/4b/ a/4b/4c'/f/4g/4e/ | z/ b/g/b/ f/b/e/b/ f/b/g/b/ f/b/e/a/ | %7
 b6 f2- | f/g/4f/4e/4f/4d/ e2- e/f/4e/4d/4e/4c/ d2- | d/e/4d/4c/4d/4=B/ c2- c/d/4c/4B/4c/4=A/ B2 | %10
 z/ c/_A/c/ G/c/F/c/ G/c/A/c/ G/c/F/=B/ | c2 e2- e/a/4g/4^f/4g/4a/ d<e | %12
 dc B2- B/e/4d/4c/4d/4e/ _A/c/4B/4A/4B/4c/ | ^F2 z/ G/4A/4B/4A/4G/ c2 B2 | %14
 A2 G2 ^F2 z/ g/f/4e/4d/ | e/c'/d/4c/4B/ c/a/B/4A/4G/ A/e/4d/4c/4B/4A/ B2- | %16
 B/c/4B/4_A/4c/4^F/ G2- G2 F2 | z/ D/4G/4F/4E/4D/ ED z/ G/4c/4B/4A/4G/ A/c/4A/4G/4^F/4=E/ | %18
 ^F4 !fermata!G4 | z8 |[M:4/4]"^Fuga" z8 | z4 z GBD | ^C2 D2 z =E/F/ GF/E/ | %23
 FG/A/ BA/G/ AB/c/ d^B/_B/ | c2 B2 Ad/c/ Bc/d/ | ecA^f g2 z2 | z =EAF D2 ^CE- | %27
 ED G2- G/^F/G/A/ B2- | B2 A2- A/D/=E/^F/ G2- | G^F/G/ AG/F/ G3 c | FG/A/ B4 A2 | B2 z2 z4 | %32
 z C/D/ ED/C/ D/=E/D/E/ FE/D/ | G3 F/=E/ F2 EB- | B cdF E2 F2 | z G/A/ BA/G/ AB/c/ dc/B/ | %36
 cd/c/ Bc/d/ ef/e/ de/f/ | geca b z z2 | z g/_a/ ba/g/ aa/g/ fg/a/ | d g2 f/e/ d3 c/=B/ | %40
 c2 =Bd Gg_ac | =B2 c2 z d/e/ fe/d/ | e/d/e/f/ g z z d/c/ Bc/d/ | e/d/c/B/ A^f g z z/ d/c/B/ | %44
 A2- A/B/c/d/ G2- G/B/_A/G/ | F2- F/G/_A/B/ E2- E/G/F/E/ | D2- D/D/=E/^F/ G2- G/B/A/G/ | %47
 ^FdeG F2 G2 | z A/B/ cB/A/ d z z2 | z4 z d/e/ fe/d/ | e2- e/d/c/B/ A2 z e/d/ | %51
 cd/e/ d=e/^f/ gf/g/ a2- | adgf edc_B | A4 !fermata!G4 |] %54
V:2
[I:staff +1] B,/D/C/E/ B,/D/A,/C/ B,/D/C/E/ B,/D/A,/C/ | B,C B,E DE DC | %2
 B,/C/D- D/CB,/- B,/A,B,/- B,/CB,/ | A,G, =E,A,- A,/C/B,- B,/A,G,/- | %4
 G,G, ^F,2[I:staff -1] z[I:staff +1] D, =E,2 | F,G, A,B, CB, CA, |[I:staff -1] de dc de dc | %7
 de fg de- e/d/=B/d/ | G2- G/c/4B/4_A/4B/4c/ F2- F/B/4A/4G/4A/4B/ | %9
 E2- E/_A/4G/4F/4G/4A/ D2- D/E/4F/4E/4F/4D/ | EF ED EF ED | E G2 c- c2- c/>c/A/4B/4c/ | %12
 B^F GD E4- | E2 D2 z/ ^F/4G/4A/4G/4F/ z/ =E/4F/4G/4F/4E/ | %14
 z/ D/4=E/4^F/4E/4D/ z/ ^C/4D/4E/4D/4C/ D2 z2 | z6 z/ A/4G/4F/4E/4D/ | %16
 E2 =E2 z/ A,/4B,/4C/4B,/4A,/ z/ C/4D/4_E/4D/4C/ | B,=B, CB, C4- | %18
 C2- C/D/4E/4D/4E/4C/- C/C/4=B,/4A,/4B,/4C/ C/4B,/4C/4B,/4C/4B,/4C/4!fermata!B,/4 | x8 | %20
[M:4/4] z[I:staff +1] DEG, ^F,2 G,2 |[I:staff -1] z[I:staff +1] A,/B,/ CB,/A,/ B,2 G,2 | %22
[I:staff -1] z[I:staff +1] A,/G,/ F,G,/A,/ B,G,=E,^C | D3 =E FEFG | %24
[I:staff -1] AG/^F/ G^C D A2 G/F/ | G2 ^FA d2 z2 | x8 | x8 | C6 B,_E | %29
 A,/[I:staff +1]B,/A,/B,/ CB,/A,/[I:staff -1] B,C/D/ E2- | E2 D2 C4 | z FGB, A,2 B,2 | x8 | x8 | %34
 z A2 G/A/ B2 A2- | AG/F/ =EC- CD/_E/ F>G | A2 G2 z cdF | E2 F2 z F/G/ _AG/F/ | %38
 G z z2 z f/e/ de/f/ | Be/d/ cd/e/ FG/F/ EF/G/ | _AFD=B c2 z[I:staff +1] E | %41
[I:staff -1] DE/F/ GA/=B/ cB/c/ dG- | Gc/d/ eG ^F2 G2- | GA/B/ cB/A/ B/D/=E/^F/ G2- | %44
 G/G/F/E/ D2- D/B,/C/D/ E2- | E/E/D/C/ B,2- B,/G,/A,/B,/ C2- | %46
 C/C/B,/A,/ G,2- G,/[I:staff +1]G,/[I:staff -1]A,/B,/ C^C | D2 z2 z d/c/ Bc/d/ | edce A z z2 | %49
 z ^F/G/ AG/F/ G4- | G4 z deG | ^F2 G2 z A/B/ cB/A/ | B3 [G=B] [Ac] z [DG] z | G2 ^F2 D4 |] %54
V:3
 G,G, G,G, G,G, G,G, | G,8- | G,>F, E,D, C,D, E,D, | ^C,4 D,>D, =C,B,, | A,,3 D, G,,3 C, | %5
 F,,2 z2 z4 | %6
 C/4B,/4C/4B,/4C/4B,/4C/4B,/4 C/4B,/4C/4B,/4C/4B,/4C/4B,/4 C/4B,/4C/4B,/4C/4B,/4C/4B,/4 C/4B,/4C/4B,/4C/4B,/4C/4B,/4- | %7
 B,/B,,/C,/4D,/4E,/ D,/B,,/E,/4F,/4G,/ F,/B,,/G,/4_A,/4B,/ A,/4B,/4A,/G,/4A,/4F,/ | %8
 =B,G, C_B, _A,F, B,A, | G,E, _A,G, F,D, G,G,, | %10
 D,/4C,/4D,/4C,/4D,/4C,/4D,/4C,/4 D,/4C,/4D,/4C,/4D,/4C,/4D,/4C,/4 D,/4C,/4D,/4C,/4D,/4C,/4D,/4C,/4 D,/4C,/4D,/4C,/4D,/4C,/4D,/4C,/4- | %11
 C,/G,,/E,,/4F,,/4G,,/ C,,/ C/4B,/4A,/4B,/4C/ ^F,4 | %12
 G,/D,/4C,/4B,,/4C,/4D,/ G,,/G,/4F,/4E,/4F,/4G,/ C,4 | D,/A,/4B,/4C/4B,/4A,/ B,D, A,D, G,D, | %14
 ^F,D, =E,D, C,/A,/4G,/4F,/4G,/4A,/ B,,=B,, | C,/A,/B,,/G,/ A,,/^F,/G,,/E,/ ^F,,D,, G,,G, | %16
 z C[I:staff -1] B,2[I:staff +1] D,4 | z2 z/ C,/4G,/4F,/4E,/4D,/ E,4- | %18
 E,/E,/4D,/4C,/4D,/4E,/- E,2 D,4 | z8 |[M:4/4] z8 | z8 | z8 | z8 | z8 | %25
 z4 z G,[I:staff -1]B,[I:staff +1]D, | ^C,2 D,2 z =E,/[I:staff -1]F,/ G,[I:staff +1]F,/E,/ | %27
 F,G,/A,/ B,A,/G,/ A,B,/C/ DC/B,/ | =E,A,/G,/ ^F,G,/A,/ B,,C,/D,/ _E,D,/C,/ | D,4 G,,3 A,, | %30
 B,,F,G,D, E,D,/E,/ F,F,, |[I:staff -1] D2[I:staff +1] z2 z F,/E,/ D,E,/F,/ | %32
 G,E,C,A,[I:staff -1] B,4- | B,C/B,/ A,B,/C/ DB,[I:staff +1]G,[I:staff -1]=E | F>E D2 C3 D/C/ | %35
[I:staff +1] B,4 A,2 z/ B,/C/D/ | EF/E/ D G,2 F,B,_A, | G,2 A,C F, z z2 | %38
 E,D,/C,/ D,=E, F,F,,/G,,/ _A,,G,,/F,,/ | G,,G,_A,C, =B,,2 C,2 | z D,/E,/ F,E,/D,/ ^D,=E,F,^F, | %41
 G,/_A,/G,/F,/ E,F,/G,/ A,F,D,=B, | C2- C/D/C/B,/ A,/D,/C,/D,/ E,/D,/C,/B,,/ | %43
 A,,C,D,D,, G,,G,/A,/ B,A,/G,/ | DD,/E,/ F,E,/D,/ E,,E,/F,/ G,F,/E,/ | %45
 B,B,,/C,/ D,C,/B,,/ C,,C,/D,/ E,D,/C,/ | G,G,,/A,,/ B,,A,,/G,,/ E,4 | z4 z DEG, | %48
 ^F,2 G,2 z[I:staff -1] A,/B,/ CB,/A,/ | B,4-[I:staff +1] B,_C/A,/ G,A,/=B,/ | C2 z2 z4 | z8 | %52
 z DEG, ^F,2 G,2 | z A,/[I:staff -1]B,/ CB,/A,/ =B,4 |] %54
V:4
 x8 | x8 | x8 | x8 | x8 | x8 | x8 | x8 | x8 | x8 | x8 | x8 | x8 | x8 | x8 | x8 | %16
 C,2 z/ ^C,/4D,/4=E,/4D,/4C,/ z2 D,,2 | G,,8- | G,,2 G,,2- !fermata!G,,4 | x8 |[M:4/4] x8 | x8 | %22
 x8 | x8 | z D,E,G,, ^F,,2 G,,2 | z A,,/B,,/ C,B,,/A,,/ B,,2 G,,2 | %26
 z A,,/G,,/ F,,G,,/A,,/ B,,G,,=E,,^C, | D,8 | x8 | x8 | x8 | B,,2 z2 z4 | x8 | x8 | %34
 A,,2 B,,2 z C,/B,,/ A,,B,,/C,/ | D,B,,G,,=E, F,4- | F,F,G,B,, A,,2 B,,2 | %37
 z C,/D,/ E,D,/C,/ D,C,/B,,/ C,D, | x8 | x8 | x8 | x8 | x8 | x8 | x8 | x8 | x8 | D,2 z2 z4 | %48
 z D,E,G,, ^F,,2 A,,2 | D,,D,/C,/ B,,C,/D,/ E,4- | E,E,/D,/ C,D,/E,/ ^F,,B,,/A,,/ F,,G,,/A,,/ | %51
 D,,D,/C,/ B,,C,/D,/ E,C,A,,^F, | G,F,E,D, C,B,,A,,G,, | C,A,,D,D,, !fermata!G,,4 |] %54
V:5
 x8 | x8 | x8 | x8 | x8 | x8 | x8 | x8 | x8 | x8 | x8 | x8 | x8 | x8 | x8 | x8 | x8 | x8 | x8 | %19
 x8 |[M:4/4] x8 | x8 | x8 | x8 | x8 | x8 | x8 | x8 | x8 | x8 | x8 | x8 | x8 | x8 | x8 | x8 | x8 | %37
 x8 | x8 | x8 | x8 | x8 | x8 | x8 | x8 | x8 | x8 | x8 | x8 | x8 | x8 | x8 | x8 | E2 D2 z4 |] %54

